X: 4
T: POLKA 4
M: 4/4
L: 1/8
Q:1/4=120
K:C
|GA/2B/2cd efg3/2f/2|egfe dfec|GA/2B/2cd efg3/2f/2|egfe dec3/2 z/2 |
GA/2B/2cd efg3/2f/2|egfe dfec|GA/2B/2cd efg3/2f/2|egfe dec3/2 z/2 |
egeg fed3/2 z/2 |dfdf edc3/2 z/2 |cece dcBc|defg a3/2 z/2 g3/2 z/2 |
egeg fed3/2 z/2 |dfdf edc3/2 z/2 |cece dcBc|defg a3/2 z/2 g3/2 z/2 |
agc3/2|
